X:1
T:Title
%%score { ( 1 4 ) | ( 2 3 ) }
L:1/8
Q:1/4=100
M:4/4
K:Eb
V:1 treble nm="Grand Piano"
V:4 treble 
V:2 bass 
V:3 bass 
V:1
 G2 G>[FA] [GB]2 [Ge]2 | [Bd]2 .[CAc]2 [EGB]4 | [EB]2 [DF]>[EG] [FA]2 z2 | [GB]2 E>F G2 z2 | %4
w: E.~C.~Avis * * * *||||
 G2 G>[FA] [GB]2 [Ge]2 | [Bd]2 .[CAc]2 [EGB]4 | [G,E]2 [G,E]>[A,EF] [B,EG]2 [G,E]2 | [DF]4 z4 | %8
w: ||||
 z4 [FA]4[K:bass] | z4 B4 | =A2 A>A G2 A2 | [DB]6 z2 | [EG]2 [EG]>[FA] [GB]2 [Ge]2 | %13
w: |||||
 [Bd]2 .[CAc]2 [EGB]4 | [G,E]2 [G,E]>[A,EF] [B,EG]2 [G,E]2 | [DF]4 z4 |] %16
w: |||
V:2
 [E,B,E]2 [E,B,E]>[E,B,] [E,E]2 [E,B,]2 | A,B, z D E,4 | [E,G,]2 [B,,B,]>[B,,B,] [B,,B,]2 z2 | %3
 [E,B,]2 [E,G,]>[E,A,D] [E,B,E]2 z2 | [E,B,E]2 [E,B,E]>[E,B,] [E,E]2 [E,B,]2 | A,B, z D E,4 | %6
 E,2 E,>E, E,2 z z/ (3:2:2z/ G/4 | z2 A,2 E,2 z2 | [B,,B,]2 [B,,B,]>[B,,B,] B,4 | %9
 [E,B,E]2 [E,B,E]>[K:treble][E,B,F] [B,G]4 | [F,CE]2 [F,CE]>[F,CE] [F,B,E]2 [F,CE]2 | [B,,B,]6 z2 | %12
 [E,B,]2 [E,B,]>[E,B,] [E,E]2 [E,B,]2 | A,B, z D E,4 | E,2 E,>E, E,2 z z/ (3:2:2z/ G/4 | %15
 z2 A,2 E,2 z2 |] %16
V:3
 x8 | E,2 E,2 z4 | x8 | x8 | x8 | E,2 E,2 z4 | z4 z2 E,2 | B,,4 z4 | z4 D,2 z2 | %9
 z4[K:treble] G,2 z2 | x8 | x8 | x8 | E,2 E,2 z4 | z4 z2 E,2 | B,,4 z4 |] %16
V:4
 x8 | x8 | x8 | x8 | x8 | x8 | x8 | B,2 z2 [G,E]2 z2 | [DF]2 [DF]>[EG] z2[K:bass] B,,2 | %9
 G2 G>A z2 E,2 | x8 | x8 | x8 | x8 | x8 | B,2 z2 [G,E]2 z2 |] %16

